epam-assets/icon-sources/18/internal-logo/competency.svg

<svg width="18" height="18" viewBox="0 0 18 18" fill="none" xmlns="http://www.w3.org/2000/svg">
<g id="18/internal-logo/competency">
<path id="icon" fill-rule="evenodd" clip-rule="evenodd" d="M12.8911 14.7202V11.2709L15.6898 9.81019V13.2595L12.8911 14.7202ZM12.8911 6.93781L15.6898 5.51391V9L12.8911 10.4239V6.93781ZM9.72453 4.581L12.5232 3.1571L15.6042 4.581L12.7687 6.07854L9.72453 4.581ZM6.16477 2.83797L9.00028 1.5L11.8358 2.80115L9.00028 4.21277L6.16477 2.83797ZM5.19476 6.07853L2.39607 4.61781L5.39116 3.19392L8.22668 4.56871L5.19476 6.07853ZM5.10899 10.4239L2.3103 9V5.51391L5.10899 6.93781V10.4239ZM5.10899 14.7201L2.3103 13.2962V9.84696L5.10899 11.2709V14.7201ZM12.2285 10.2029L9.42983 8.77902V5.29293L12.2285 6.71683V10.2029ZM8.59513 16.5L5.79644 15.0761V11.6391L8.59513 13.063V16.5ZM9.00003 9.30689L12.0442 10.8413L9.00003 12.4616L5.95584 10.8413L9.00003 9.30689ZM8.54598 8.9018L5.74729 10.3257V6.83961L8.54598 5.41571V8.9018ZM12.2038 15.0761L9.40516 16.5V13.0507L12.2038 11.6268V15.0761Z" fill="#6C6F80"/>
</g>
</svg>

<svg xmlns="http://www.w3.org/2000/svg" width="18" height="18" fill="none" viewBox="0 0 18 18">
  <path fill="#6C6F80" fill-rule="evenodd" d="M12.891 14.72v-3.45l2.799-1.46v3.45l-2.799 1.46Zm0-7.782 2.799-1.424V9l-2.799 1.424V6.938ZM9.725 4.58l2.798-1.424 3.081 1.424-2.835 1.498L9.725 4.58Zm-3.56-1.743L9 1.5l2.836 1.301L9 4.213 6.165 2.838Zm-.97 3.24-2.799-1.46 2.995-1.424 2.836 1.375-3.032 1.51Zm-.086 4.346L2.31 9V5.514l2.8 1.424v3.486Zm0 4.296L2.31 13.296V9.847l2.799 1.424v3.45Zm7.12-4.517-2.8-1.424V5.293l2.8 1.424v3.486ZM8.595 16.5l-2.799-1.424V11.64l2.8 1.424V16.5ZM9 9.307l3.044 1.534L9 12.461l-3.044-1.62L9 9.307Zm-.454-.405-2.799 1.424V6.84l2.799-1.424v3.486Zm3.658 6.174L9.405 16.5v-3.45l2.799-1.423v3.45Z" clip-rule="evenodd"/>
</svg>
